symbols/web/next_week/materialsymbolsrounded/next_week_fill1_48px.svg

<svg xmlns="http://www.w3.org/2000/svg" height="48" width="48"><path d="M22 33.6 27.55 28.05Q28 27.6 28 27Q28 26.4 27.55 25.95L21.95 20.35Q21.65 20.05 21.25 20.05Q20.85 20.05 20.55 20.35Q20.25 20.65 20.25 21.05Q20.25 21.45 20.55 21.75L25.8 27L20.6 32.2Q20.3 32.5 20.3 32.9Q20.3 33.3 20.6 33.6Q20.9 33.9 21.3 33.9Q21.7 33.9 22 33.6ZM7 42Q5.8 42 4.9 41.1Q4 40.2 4 39V14.35Q4 13.15 4.9 12.25Q5.8 11.35 7 11.35H16.5V7Q16.5 5.85 17.4 4.925Q18.3 4 19.5 4H28.5Q29.7 4 30.6 4.925Q31.5 5.85 31.5 7V11.35H41Q42.2 11.35 43.1 12.25Q44 13.15 44 14.35V39Q44 40.2 43.1 41.1Q42.2 42 41 42ZM19.5 11.35H28.5V7Q28.5 7 28.5 7Q28.5 7 28.5 7H19.5Q19.5 7 19.5 7Q19.5 7 19.5 7Z"/></svg>

<svg xmlns="http://www.w3.org/2000/svg" height="48" width="48"><path d="m22 33.6 5.55-5.55Q28 27.6 28 27q0-.6-.45-1.05l-5.6-5.6q-.3-.3-.7-.3-.4 0-.7.3-.3.3-.3.7 0 .4.3.7L25.8 27l-5.2 5.2q-.3.3-.3.7 0 .4.3.7.3.3.7.3.4 0 .7-.3ZM7 42q-1.2 0-2.1-.9Q4 40.2 4 39V14.35q0-1.2.9-2.1.9-.9 2.1-.9h9.5V7q0-1.15.9-2.075Q18.3 4 19.5 4h9q1.2 0 2.1.925.9.925.9 2.075v4.35H41q1.2 0 2.1.9.9.9.9 2.1V39q0 1.2-.9 2.1-.9.9-2.1.9Zm12.5-30.65h9V7h-9Z"/></svg>
